themes/smi/static/img/deislabs-tr.svg

<svg height="111" viewBox="0 0 108 111" width="108" xmlns="http://www.w3.org/2000/svg"><path d="m99.9946599 111h-.0786122-91.91073815c-2.77435478 0-5.35217912-1.472229-6.80977992-3.901238-1.4576008-2.42901-1.59189661-5.46106-.35047929-8.0147205l45.95209356-94.53596574c1.3593356-2.78611752 4.1304149-4.54807576 7.1635347-4.54807576 3.0331199 0 5.8041992 1.76195824 7.1602592 4.54807576l45.5033492 93.60613694c.868009 1.3138886 1.375713 2.9006613 1.375713 4.6120853 0 4.551445-3.586681 8.233702-8.0053401 8.233702" fill="#3fb1e5" fill-rule="evenodd" transform="matrix(-1 0 0 1 108 0)"/></svg>

<?xml version="1.0" encoding="UTF-8"?>
<svg width="108px" height="111px" viewBox="0 0 108 111" version="1.1" xmlns="http://www.w3.org/2000/svg" xmlns:xlink="http://www.w3.org/1999/xlink">
    <!-- Generator: Sketch 51.3 (57544) - http://www.bohemiancoding.com/sketch -->
    <title>Fill 19</title>
    <desc>Created with Sketch.</desc>
    <defs></defs>
    <g id="Page-1" stroke="none" stroke-width="1" fill="none" fill-rule="evenodd">
        <g id="Artboard-2" transform="translate(-3.000000, 0.000000)" fill="#3FB1E5">
            <g id="Group-2" transform="translate(3.000000, 0.000000)">
                <path d="M99.9946599,111 L99.9160477,111 L8.00530955,111 C5.23095477,111 2.65313043,109.527771 1.19552963,107.098762 C-0.26207117,104.669752 -0.396366975,101.637702 0.845050337,99.0840415 L46.7971439,4.54807576 C48.1564795,1.76195824 50.9275588,0 53.9606786,0 C56.9937985,0 59.7648778,1.76195824 61.1209378,4.54807576 L106.624287,98.1542127 C107.492296,99.4681013 108,101.054874 108,102.766298 C108,107.317743 104.413319,111 99.9946599,111" id="Fill-19" style="mix-blend-mode: multiply;" transform="translate(54.000000, 55.500000) scale(1, -1) rotate(180.000000) translate(-54.000000, -55.500000) "></path>
            </g>
        </g>
    </g>
</svg>
